images/main-footer/logo-html-academy/logo-html-academy_focus.svg

<svg width="115" height="34" viewBox="0 0 115 34" fill="none" xmlns="http://www.w3.org/2000/svg">
<path d="M0 13.5233V16.1233H2.5V13.5233H0Z" fill="#756157"/>
<path d="M11.6 5.12329C10 5.12329 8.8 5.82329 8 6.82329H7.9V0.623291H5.9V16.1233H7.9V10.8233C7.9 8.72329 9.2 7.22329 11.2 7.22329C13 7.22329 14.1 8.62329 14.1 10.4233V16.1233H16.1V10.0233C16.2 7.02329 14.3 5.12329 11.6 5.12329Z" fill="#756157"/>
<path d="M26.6 5.42329H21.8V1.72329H19.8V5.52329H17.9V7.52329H19.8V13.5233C19.8 15.2233 20.8 16.2233 22.5 16.2233H26.6V14.2233H22.9C22.2 14.2233 21.8 13.8233 21.8 13.1233V7.42329H26.6V5.42329Z" fill="#756157"/>
<path d="M41.1 5.22329C39.5 5.22329 38.2 6.02329 37.6 7.32329H37.5C36.9 6.12329 35.7 5.22329 34.1 5.22329C32.7 5.22329 31.6 6.02329 31 7.02329H30.9V5.42329H29V16.0233H31V10.6233C31 8.62329 32 7.12329 33.6 7.12329C35.1 7.12329 36 8.12329 36 9.72329V16.0233H38V10.4233C38 8.02329 39.4 7.12329 40.6 7.12329C42.1 7.12329 43 8.12329 43 9.72329V16.0233H45V9.52329C45.1 7.02329 43.6 5.22329 41.1 5.22329Z" fill="#756157"/>
<path d="M47.8 13.3233C47.8 15.0233 48.8 16.0233 50.6 16.0233H52.6V14.0233H50.9C50.2 14.0233 49.8 13.6233 49.8 12.9233V0.623291H47.8V13.3233Z" fill="#756157"/>
<path d="M28.9 20.3233C28 19.2233 26.7 18.5233 25 18.5233C21.9 18.5233 19.6 20.8233 19.6 24.1233C19.6 27.4233 21.9 29.7233 25 29.7233C26.8 29.7233 28 28.9233 28.8 27.8233H28.9V29.4233H30.9V18.8233H28.9V20.3233ZM25.3 27.7233C23.1 27.7233 21.7 26.1233 21.7 24.1233C21.7 22.1233 23.1 20.5233 25.3 20.5233C27.5 20.5233 28.9 22.1233 28.9 24.1233C28.9 26.0233 27.5 27.7233 25.3 27.7233Z" fill="#756157"/>
<path d="M44.2 22.6233C43.7 20.2233 41.6 18.5233 38.8 18.5233C35.4 18.5233 33.2 21.0233 33.2 24.1233C33.2 27.2233 35.4 29.7233 38.8 29.7233C41.6 29.7233 43.7 27.9233 44.2 25.5233H42.1C41.7 26.8233 40.4 27.8233 38.8 27.8233C36.6 27.8233 35.2 26.2233 35.2 24.2233C35.2 22.2233 36.6 20.6233 38.8 20.6233C40.4 20.6233 41.6 21.6233 42.1 22.8233H44.2V22.6233Z" fill="#756157"/>
<path d="M55.1 20.3233C54.2 19.2233 52.9 18.5233 51.2 18.5233C48.1 18.5233 45.8 20.8233 45.8 24.1233C45.8 27.4233 48.1 29.7233 51.2 29.7233C53 29.7233 54.2 28.9233 55 27.8233H55.1V29.4233H57.1V18.8233H55.1V20.3233ZM51.5 27.7233C49.3 27.7233 47.9 26.1233 47.9 24.1233C47.9 22.1233 49.3 20.5233 51.5 20.5233C53.7 20.5233 55.1 22.1233 55.1 24.1233C55.1 26.0233 53.6 27.7233 51.5 27.7233Z" fill="#756157"/>
<path d="M68.7 20.4233C67.8 19.3233 66.5 18.5233 64.8 18.5233C61.7 18.5233 59.4 20.8233 59.4 24.1233C59.4 27.4233 61.6 29.7233 64.8 29.7233C66.5 29.7233 67.8 28.9233 68.6 27.9233H68.7V29.4233H70.7V14.0233H68.7V20.4233ZM65.1 27.7233C62.9 27.7233 61.5 26.1233 61.5 24.1233C61.5 22.1233 62.9 20.5233 65.1 20.5233C67.3 20.5233 68.7 22.1233 68.7 24.1233C68.6 26.1233 67.2 27.7233 65.1 27.7233Z" fill="#756157"/>
<path d="M78.3 18.5233C75 18.5233 72.8 21.0233 72.8 24.1233C72.8 27.1233 74.9 29.7233 78.3 29.7233C80.8 29.7233 82.8 28.4233 83.5 26.1233H81.4C80.9 27.1233 79.8 27.7233 78.4 27.7233C76.5 27.7233 75.1 26.4233 75 24.8233H83.8C84 21.2233 81.8 18.5233 78.3 18.5233ZM78.3 20.4233C80 20.4233 81.3 21.4233 81.6 23.0233H75.1C75.4 21.5233 76.6 20.4233 78.3 20.4233Z" fill="#756157"/>
<path d="M98.2 18.5233C96.6 18.5233 95.3 19.3233 94.6 20.5233H94.5C93.9 19.3233 92.7 18.5233 91.1 18.5233C89.7 18.5233 88.6 19.2233 88 20.3233V18.8233H86.1V29.4233H88.1V24.0233C88.1 22.0233 89.1 20.6233 90.7 20.5233C92.2 20.5233 93.1 21.5233 93.1 23.1233V29.4233H95.1V23.8233C95.1 21.4233 96.5 20.5233 97.7 20.5233C99.2 20.5233 100.1 21.5233 100.1 23.1233V29.4233H102.1V22.9233C102.2 20.3233 100.7 18.5233 98.2 18.5233Z" fill="#756157"/>
<path d="M109.4 27.6233L105.8 18.7233H103.6L108.4 30.3233C108.1 31.2233 107.7 31.5233 106.7 31.5233H104.2V33.5233H106.7C108.5 33.5233 109.5 32.7233 110.2 30.9233L114.9 18.7233H112.8L109.4 27.6233Z" fill="#756157"/>
</svg>

<svg xmlns="http://www.w3.org/2000/svg" width="115" height="34" fill="none"><path fill="#756157" d="M0 13.523v2.6h2.5v-2.6H0ZM11.6 5.123c-1.6 0-2.8.7-3.6 1.7h-.1v-6.2h-2v15.5h2v-5.3c0-2.1 1.3-3.6 3.3-3.6 1.8 0 2.9 1.4 2.9 3.2v5.7h2v-6.1c.1-3-1.8-4.9-4.5-4.9ZM26.6 5.423h-4.8v-3.7h-2v3.8h-1.9v2h1.9v6c0 1.7 1 2.7 2.7 2.7h4.1v-2h-3.7c-.7 0-1.1-.4-1.1-1.1v-5.7h4.8v-2ZM41.1 5.223c-1.6 0-2.9.8-3.5 2.1h-.1c-.6-1.2-1.8-2.1-3.4-2.1-1.4 0-2.5.8-3.1 1.8h-.1v-1.6H29v10.6h2v-5.4c0-2 1-3.5 2.6-3.5 1.5 0 2.4 1 2.4 2.6v6.3h2v-5.6c0-2.4 1.4-3.3 2.6-3.3 1.5 0 2.4 1 2.4 2.6v6.3h2v-6.5c.1-2.5-1.4-4.3-3.9-4.3ZM47.8 13.323c0 1.7 1 2.7 2.8 2.7h2v-2h-1.7c-.7 0-1.1-.4-1.1-1.1V.623h-2v12.7ZM28.9 20.323c-.9-1.1-2.2-1.8-3.9-1.8-3.1 0-5.4 2.3-5.4 5.6s2.3 5.6 5.4 5.6c1.8 0 3-.8 3.8-1.9h.1v1.6h2v-10.6h-2v1.5Zm-3.6 7.4c-2.2 0-3.6-1.6-3.6-3.6s1.4-3.6 3.6-3.6 3.6 1.6 3.6 3.6c0 1.9-1.4 3.6-3.6 3.6ZM44.2 22.623c-.5-2.4-2.6-4.1-5.4-4.1-3.4 0-5.6 2.5-5.6 5.6 0 3.1 2.2 5.6 5.6 5.6 2.8 0 4.9-1.8 5.4-4.2h-2.1c-.4 1.3-1.7 2.3-3.3 2.3-2.2 0-3.6-1.6-3.6-3.6s1.4-3.6 3.6-3.6c1.6 0 2.8 1 3.3 2.2h2.1v-.2ZM55.1 20.323c-.9-1.1-2.2-1.8-3.9-1.8-3.1 0-5.4 2.3-5.4 5.6s2.3 5.6 5.4 5.6c1.8 0 3-.8 3.8-1.9h.1v1.6h2v-10.6h-2v1.5Zm-3.6 7.4c-2.2 0-3.6-1.6-3.6-3.6s1.4-3.6 3.6-3.6 3.6 1.6 3.6 3.6c0 1.9-1.5 3.6-3.6 3.6ZM68.7 20.423c-.9-1.1-2.2-1.9-3.9-1.9-3.1 0-5.4 2.3-5.4 5.6s2.2 5.6 5.4 5.6c1.7 0 3-.8 3.8-1.8h.1v1.5h2v-15.4h-2v6.4Zm-3.6 7.3c-2.2 0-3.6-1.6-3.6-3.6s1.4-3.6 3.6-3.6 3.6 1.6 3.6 3.6c-.1 2-1.5 3.6-3.6 3.6ZM78.3 18.523c-3.3 0-5.5 2.5-5.5 5.6 0 3 2.1 5.6 5.5 5.6 2.5 0 4.5-1.3 5.2-3.6h-2.1c-.5 1-1.6 1.6-3 1.6-1.9 0-3.3-1.3-3.4-2.9h8.8c.2-3.6-2-6.3-5.5-6.3Zm0 1.9c1.7 0 3 1 3.3 2.6h-6.5c.3-1.5 1.5-2.6 3.2-2.6ZM98.2 18.523c-1.6 0-2.9.8-3.6 2h-.1c-.6-1.2-1.8-2-3.4-2-1.4 0-2.5.7-3.1 1.8v-1.5h-1.9v10.6h2v-5.4c0-2 1-3.4 2.6-3.5 1.5 0 2.4 1 2.4 2.6v6.3h2v-5.6c0-2.4 1.4-3.3 2.6-3.3 1.5 0 2.4 1 2.4 2.6v6.3h2v-6.5c.1-2.6-1.4-4.4-3.9-4.4ZM109.4 27.623l-3.6-8.9h-2.2l4.8 11.6c-.3.9-.7 1.2-1.7 1.2h-2.5v2h2.5c1.8 0 2.8-.8 3.5-2.6l4.7-12.2h-2.1l-3.4 8.9Z"/></svg>
